svgs/regular/starship.svg

<svg xmlns="http://www.w3.org/2000/svg" viewBox="0 0 640 512"><!--! Font Awesome Pro 6.3.0 by @fontawesome - https://fontawesome.com License - https://fontawesome.com/license (Commercial License) Copyright 2023 Fonticons, Inc. --><path d="M0 96C0 60.7 28.7 32 64 32H192c35.3 0 64 28.7 64 64s-28.7 64-64 64H164.8l37.7 26.1 70.1-8.4C302.6 110.7 369.9 64 448 64c106 0 192 86 192 192s-86 192-192 192c-78.1 0-145.4-46.7-175.3-113.7l-70.1-8.4L164.8 352H192c35.3 0 64 28.7 64 64s-28.7 64-64 64H64c-35.3 0-64-28.7-64-64s28.7-64 64-64H80.5l50.1-34.7-13.7-1.6C86.7 312 64 286.4 64 256s22.7-56 52.9-59.6l13.7-1.6L80.5 160H64C28.7 160 0 131.3 0 96zM64 80c-8.8 0-16 7.2-16 16s7.2 16 16 16H192c8.8 0 16-7.2 16-16s-7.2-16-16-16H64zm58.6 164c-6.1 .7-10.6 5.9-10.6 12s4.6 11.3 10.6 12l135.4 16.3c-1.4-9.2-2.1-18.6-2.1-28.2s.7-19 2.1-28.2L122.6 244zM48 416c0 8.8 7.2 16 16 16H192c8.8 0 16-7.2 16-16s-7.2-16-16-16H64c-8.8 0-16 7.2-16 16zm400-16a144 144 0 1 0 0-288 144 144 0 1 0 0 288zm32-144a32 32 0 1 0 -64 0 32 32 0 1 0 64 0zm-112 0a80 80 0 1 1 160 0 80 80 0 1 1 -160 0z"/></svg>

<svg xmlns="http://www.w3.org/2000/svg" viewBox="0 0 640 512"><!--! Font Awesome Pro 6.2.0 by @fontawesome - https://fontawesome.com License - https://fontawesome.com/license (Commercial License) Copyright 2022 Fonticons, Inc. --><path d="M528 256C528 300.2 492.2 336 448 336C403.8 336 368 300.2 368 256C368 211.8 403.8 176 448 176C492.2 176 528 211.8 528 256zM448 224C430.3 224 416 238.3 416 256C416 273.7 430.3 288 448 288C465.7 288 480 273.7 480 256C480 238.3 465.7 224 448 224zM0 96C0 60.65 28.65 32 64 32H192C227.3 32 256 60.65 256 96C256 131.3 227.3 160 192 160H164.8L202.5 186.1L272.7 177.7C302.6 110.7 369.9 64 448 64C554 64 640 149.1 640 256C640 362 554 448 448 448C369.9 448 302.6 401.3 272.7 334.3L202.5 325.9L164.8 352H192C227.3 352 256 380.7 256 416C256 451.3 227.3 480 192 480H64C28.65 480 0 451.3 0 416C0 380.7 28.65 352 64 352H80.5L130.6 317.3L116.9 315.6C86.72 312 64 286.4 64 256C64 225.6 86.72 199.1 116.9 196.4L130.6 194.7L80.5 160H64C28.65 160 0 131.3 0 96V96zM64 80C55.16 80 48 87.16 48 96C48 104.8 55.16 112 64 112H192C200.8 112 208 104.8 208 96C208 87.16 200.8 80 192 80H64zM112 256C112 262.1 116.6 267.3 122.6 267.1L258.1 284.2C256.7 275 256 265.6 256 256C256 246.4 256.7 236.1 258.1 227.8L122.6 244C116.6 244.7 111.1 249.9 111.1 256H112zM64 432H192C200.8 432 208 424.8 208 416C208 407.2 200.8 400 192 400H64C55.16 400 48 407.2 48 416C48 424.8 55.16 432 64 432zM448 400C527.5 400 592 335.5 592 256C592 176.5 527.5 112 448 112C368.5 112 304 176.5 304 256C304 335.5 368.5 400 448 400z"/></svg>
